!!!SOCIAL_FUNCTION:	love songs
!!!PDT:	1913
!!!OTL: No_106_Do_Not_Weep.krn
!!!REG: Great_Lakes
!!!LANG: Non-Tone
!!!LING_GROUP: Algonquin
**kern
*staff1
=1-
*clefF4
*k[b-e-a-]
*M3/4
8c\L
8c\J
8c\L
8G\J
4c\
=2||
*M2/4
2G\
=3||
*M3/4
8c\L
8G\J
8F\L
8E-\J
4G\
=4||
*M2/4
2F\
=5||
*M3/4
8c\L
8F\J
8F/L
8C/J
4D\
=6
2.C/
=7||
*M2/4
16D\LK
[8.F\J
4F\]
=8
8D\L
8F\J
4D\
=9||
*M3/4
2.C/
=10
8c\L
8G\J
8G\L
8F\J
4c\
=11||
*M2/4
2G\
=12||
*M3/4
8c\L
8G\J
8F\L
8E-\J
4G\
=13||
*M2/4
2F\
=14
16D\LK
[8.F\J
4F\]
=15
8D\L
8F\J
4E-\
=16||
*M3/4
2.C/
=17||
*M2/4
16D\LK
[8.F\J
4F\]
=18
8D\L
8F\J
4E-\
=19||
*M3/4
2.C/
==
*-
